X:1
T:[ID 1-82]
T:[ID 1-82]
T:Bezeichnung standardisiert: Polonaise Polonoise In dieser Quelle auch als: Polon\"aise In dieser Quelle auch als: Polonaise In dieser Quelle auch als: Poloniose In dieser Quelle auch als: Menuet In dieser Quelle auch als: Tantz
T:Urheber unbekannt Erstbeleg: vor 1767 (Datum in der schriftlichen Quelle) Datum in der hier transkribierten schriftlichen Quelle: 1776 - 1791
C:Urheber unbekannt
C:Erstbeleg: vor 1767 (Datum in der schriftlichen Quelle)
C:Datum in der hier transkribierten schriftlichen Quelle: 1776 - 1791
L:1/8
M:3/4
K:D
V:1 treble 
V:1
 f/g/a/f/ dddd | c/d/e/c/ AAAA | (Ac)(ce)(eg) | gf/e/ f2 f2 :: fa/f/ d2 _c2 | %5
 B/c/d/B/ A/B/c/A/ G2 | gb/g/ e2 d2 | c/d/e/c/ B/c/d/B/ A,2 | (Ac)(ce)(eg) | (Ad)(df)(fa) | %10
 (Ac)(ce)(eg) | f/e/d/c/ d2 D2 :| %12

